packages/sights/assets/overlays/enHQTFae.svg

<svg width="500" height="375" viewBox="0 0 500 375" fill="none" xmlns="http://www.w3.org/2000/svg">
<path d="M493 86.29L456.49 85.07C456.49 85.07 313.71 12.41 279.32 5.25" stroke="white" stroke-miterlimit="10"/>
<path d="M162.83 5.25C162.83 5.25 68.3601 32.48 42.2201 54.5C42.2201 54.5 41.2201 57.25 40.3901 58.85L7.00009 104.94" stroke="white" stroke-miterlimit="10"/>
<path d="M493 278.06C493 278.06 410 300.7 406.35 369.75" stroke="white" stroke-miterlimit="10"/>
<path d="M320.13 369.75L55.9999 258.57L47.7499 248.48C47.7499 248.48 34.3799 175.8 6.99988 166.39" stroke="white" stroke-miterlimit="10"/>
<path d="M493 286.55C493 286.55 449 310.85 438 345.71L432 369.71" stroke="white" stroke-miterlimit="10"/>
<path d="M493 249.55C493 249.55 408.18 264.55 387.7 346.78C387.7 346.78 46.81 227.85 45.89 224.64C45.89 224.64 35.19 181.38 18.07 167.46" stroke="white" stroke-miterlimit="10"/>
<path d="M230.73 76.27C230.73 76.27 267.62 76.51 327.47 90.73C327.47 90.73 371.04 94.62 375.62 92.56L380.44 107C380.44 107 264.94 103.33 250 97.6L237.13 92.6L234.61 89.16C234.61 89.16 227.5 68.98 228.18 59.35C228.18 59.35 247.9 43.51 279.32 45.81L284.13 46.74C284.13 46.74 322.66 62.56 327.93 67.84L320.13 89.16" stroke="white" stroke-miterlimit="10"/>
<path d="M375.62 92.56C375.62 92.56 279.17 14.09 230.86 5.25" stroke="white" stroke-miterlimit="10"/>
<path d="M192.64 5.25C192.64 5.25 98.78 25.51 67 45.77C67 45.77 33.37 93.94 31.84 100.97C31.84 100.97 231.63 101.64 303.25 103.45" stroke="white" stroke-miterlimit="10"/>
<path d="M456.49 85.07L411.85 83.85C411.85 83.85 284.36 8.74 262.85 5.25" stroke="white" stroke-miterlimit="10"/>
<path d="M72.2598 265.43C72.2598 265.43 70.4998 274.93 64.2598 278.6L31.6998 290.37C31.6998 290.37 24.3598 291.75 17.1698 285.78C17.1698 285.78 10.0097 279.36 7.01974 273.86" stroke="white" stroke-miterlimit="10"/>
<path d="M7.00038 192C16.5804 194.3 27.0604 210.35 31.8904 231.34C37.4604 255.52 33.4204 277.1 22.8904 279.53C17.8104 280.7 11.4604 276.1 7.65037 269.25" stroke="white" stroke-miterlimit="10"/>
<path d="M138.13 18.92C138.13 18.92 126.76 73.76 126.3 97.76L120.18 104.94L113.76 132C113.76 132 116.21 199.16 120.26 252.48" stroke="white" stroke-miterlimit="10"/>
<path d="M380.44 107V113.19C380.44 113.19 389.15 218.19 369.2 323.9L367 339.56" stroke="white" stroke-miterlimit="10"/>
<path d="M157.1 154.93L150.91 156.65C150.91 156.65 120.91 153.21 119.38 151.38L118.46 146.1L120.87 143.46C120.87 143.46 126.38 141.29 131.31 142.32L132.45 146C135.946 146.479 139.472 146.71 143 146.69L148.39 144C148.39 144 153.66 144.8 157.1 147.55C157.1 147.59 158.36 152.64 157.1 154.93Z" stroke="white" stroke-miterlimit="10"/>
</svg>

<svg width="500" height="375" fill="none" xmlns="http://www.w3.org/2000/svg"><path d="m493 86.29-36.51-1.22S313.71 12.41 279.32 5.25M162.83 5.25S68.36 32.48 42.22 54.5c0 0-1 2.75-1.83 4.35L7 104.94M493 278.06s-83 22.64-86.65 91.69M320.13 369.75 56 258.57l-8.25-10.09S34.38 175.8 7 166.39" stroke="#fff" stroke-miterlimit="10"/><path d="M493 286.55s-44 24.3-55 59.16l-6 24M493 249.55s-84.82 15-105.3 97.23c0 0-340.89-118.93-341.81-122.14 0 0-10.7-43.26-27.82-57.18M230.73 76.27s36.89.24 96.74 14.46c0 0 43.57 3.89 48.15 1.83l4.82 14.44s-115.5-3.67-130.44-9.4l-12.87-5-2.52-3.44s-7.11-20.18-6.43-29.81c0 0 19.72-15.84 51.14-13.54l4.81.93s38.53 15.82 43.8 21.1l-7.8 21.32M375.62 92.56S279.17 14.09 230.86 5.25" stroke="#fff" stroke-miterlimit="10"/><path d="M192.64 5.25S98.78 25.51 67 45.77c0 0-33.63 48.17-35.16 55.2 0 0 199.79.67 271.41 2.48M456.49 85.07l-44.64-1.22s-127.49-75.11-149-78.6M72.26 265.43s-1.76 9.5-8 13.17L31.7 290.37s-7.34 1.38-14.53-4.59c0 0-7.16-6.42-10.15-11.92" stroke="#fff" stroke-miterlimit="10"/><path d="M7 192c9.58 2.3 20.06 18.35 24.89 39.34 5.57 24.18 1.53 45.76-9 48.19-5.08 1.17-11.43-3.43-15.24-10.28M138.13 18.92s-11.37 54.84-11.83 78.84l-6.12 7.18-6.42 27.06s2.45 67.16 6.5 120.48M380.44 107v6.19s8.71 105-11.24 210.71l-2.2 15.66" stroke="#fff" stroke-miterlimit="10"/><path d="m157.1 154.93-6.19 1.72s-30-3.44-31.53-5.27l-.92-5.28 2.41-2.64s5.51-2.17 10.44-1.14l1.14 3.68a74.61 74.61 0 0 0 10.55.69l5.39-2.69s5.27.8 8.71 3.55c0 .04 1.26 5.09 0 7.38Z" stroke="#fff" stroke-miterlimit="10"/></svg>
